X: 33
T:Ballo de Dodici
O:Italy
M:2/4
L:1/16
Q:1/4=120
K:D
%%MIDI program 23
%%MIDI bassprog 117
%%MIDI chordprog 23
%%MIDI beat 110 100 90 4
%%MIDI chordvol 65
%%MIDI bassvol 65
P:A
|: "D"A2 A2 FEFG      | A2 A2 F2 D2  |\
   A2 A2 FEFG         |[1 AGFE D2 z2 :|\
   [2 AGFE D2 DD      |D4 z4         |
P:B
|: F2 FF F2A2         | "G"B6 A2     |\
   "D"F2 FF F2A2      | "G"G6 F2     |
   "Em"EFGA "Bm"B3d   |"A"c6 d2      |\
   c4 "Bm"B4          |[1"D"A2 G2 F4 :|[2 d8|
P:C
   "A"f2 e2 d2 c2     |c2 B4 Bc      |\
   d2 cd e2 d2        |c8            |
   e2 d2 "D"c2 B2     |B2 A4 AB      |\
   "F#m"AB cB "A"e2 d2|"D"f8         |
   f2 e2 d2 c2        |c2 B4 Bc      |\
   "A"c2 Bc "D"d2 B2  |"G"B8         |
   B2 BA d2 B2        |"D"A2 GF A2 G2|\
   F2 EF "G"G2 E2     |"D"D8         |



